src/assets/icons/radio.svg

<svg width="16" height="16" viewBox="0 0 16 16" fill="none" xmlns="http://www.w3.org/2000/svg">
<g clip-path="url(#clip0_8874_15284)">
<path fill-rule="evenodd" clip-rule="evenodd" d="M2.84549 1.8794C4.19139 0.764035 5.75937 0.131112 7.46212 0.0158669C9.36665 -0.11304 11.2814 0.454071 12.7969 1.59597C13.1272 1.84486 13.319 2.01314 13.6529 2.34706C13.9869 2.68098 14.1551 2.87279 14.404 3.2031C16.0764 5.42273 16.4661 8.39322 15.4247 10.983C15.1066 11.7738 14.6904 12.4669 14.1206 13.1545C13.938 13.3748 13.3763 13.9366 13.156 14.1191C11.8013 15.2418 10.2345 15.8701 8.50676 15.9836C6.61894 16.1076 4.71326 15.5393 3.20456 14.4026C2.87425 14.1537 2.68244 13.9854 2.34852 13.6515C2.0146 13.3176 1.84631 13.1257 1.59743 12.7954C0.362733 11.1568 -0.190527 9.08124 0.05913 7.02465C0.245967 5.48548 0.86044 4.07536 1.88085 2.84403C2.06341 2.62372 2.62517 2.06196 2.84549 1.8794ZM4.05612 3.10227C5.09151 2.27808 6.32024 1.80334 7.62027 1.72517C7.94372 1.70571 8.03284 1.70561 8.3427 1.72429C8.96294 1.76171 9.42993 1.85082 9.99272 2.03913C10.9498 2.35941 11.7137 2.83441 12.4393 3.56046C12.954 4.07542 13.3064 4.55696 13.6056 5.15394C14.3706 6.68021 14.4962 8.39131 13.9609 9.99126C13.6407 10.9481 13.1663 11.7109 12.4393 12.4379C11.925 12.9522 11.4433 13.3048 10.8461 13.6042C9.31978 14.3691 7.60869 14.4948 6.00874 13.9594C5.05208 13.6393 4.28974 13.1652 3.56192 12.4379C3.04594 11.9222 2.69623 11.4438 2.39272 10.8383C1.81866 9.69315 1.60384 8.43298 1.76843 7.17599C1.91693 6.04177 2.37581 4.96914 3.10373 4.05467C3.27572 3.83859 3.84005 3.27427 4.05612 3.10227Z" fill="currentColor"/>
</g>
<defs>
<clipPath id="clip0_8874_15284">
<rect width="16" height="16" fill="white" transform="translate(0 -0.000732422)"/>
</clipPath>
</defs>
</svg>

<svg xmlns="http://www.w3.org/2000/svg" width="16" height="16" fill="none">
  <g clip-path="url(#a)">
    <path fill="currentColor" fill-rule="evenodd" d="M2.845 1.88C4.191.763 5.76.13 7.462.015a8.014 8.014 0 0 1 5.335 1.58c.33.249.522.417.856.751.334.334.502.526.751.856a8.007 8.007 0 0 1-.283 9.951c-.183.22-.745.783-.965.965-1.355 1.123-2.921 1.751-4.65 1.865a7.998 7.998 0 0 1-5.301-1.581 7.03 7.03 0 0 1-.856-.752 7.025 7.025 0 0 1-.752-.856 8 8 0 0 1 .284-9.951c.182-.22.744-.782.964-.965Zm1.211 1.222A6.299 6.299 0 0 1 7.62 1.725c.324-.02.413-.02.723 0 .62.037 1.087.126 1.65.314.957.32 1.72.795 2.446 1.521a5.9 5.9 0 0 1 1.167 1.594 6.266 6.266 0 0 1 .355 4.837 6.015 6.015 0 0 1-1.522 2.447 5.883 5.883 0 0 1-1.593 1.166 6.266 6.266 0 0 1-4.837.355 6.018 6.018 0 0 1-2.447-1.521 5.868 5.868 0 0 1-1.17-1.6 6.3 6.3 0 0 1-.624-3.662 6.321 6.321 0 0 1 1.336-3.121c.172-.216.736-.78.952-.953Z" clip-rule="evenodd"/>
  </g>
  <defs>
    <clipPath id="a">
      <path fill="#fff" d="M0 0h16v16H0z"/>
    </clipPath>
  </defs>
</svg>
